; generated by Slic3r 1.3.0 on 2023-03-22 at 22:52:12

; external perimeters extrusion width = 0.44mm (3.57mm^3/s)
; perimeters extrusion width = 0.56mm (9.31mm^3/s)
; infill extrusion width = 0.50mm (8.23mm^3/s)
; solid infill extrusion width = 0.56mm (6.98mm^3/s)
; top infill extrusion width = 0.56mm (3.49mm^3/s)

M107
M104 S220 ; start preheating
M280 S3.24 ; deploy probe
G31 J83 ; do bed mesh
M374 ; save bed mesh
M375 ; load bed mesh
G0 X0 Y0 Z5 F5000 ; Move just above bed center
G30 Z1.35 ; Set probe offset
G0 Z5 ; Back off
M280 S7.36 ; retract probe
G1 Z5 F5000 ; lift nozzle
M109 S220 ; finish preheating

; Filament gcode

G21 ; set units to millimeters
G90 ; use absolute coordinates
M82 ; use absolute distances for extrusion
G92 E0
G1 Z0.300 F9000.000
G1 E-3.00000 F60000.00000
G92 E0
G1 X-1.720 Y58.270 F9000.000
G1 E3.20000 F60000.00000
M204 S5000
G1 F2700
G1 X-40.001 Y53.478 E5.23883
G1 X-73.441 Y48.922 E7.02237
G1 X-74.002 Y48.796 E7.05274
G1 X-74.543 Y48.603 E7.08308
G1 X-75.067 Y48.340 E7.11409
G1 X-75.550 Y48.019 E7.14472
G1 X-75.988 Y47.643 E7.17522
G1 X-76.386 Y47.206 E7.20648
G1 X-76.722 Y46.731 E7.23721
G1 X-76.997 Y46.220 E7.26789
G1 X-77.182 Y45.757 E7.29423
G1 X-77.326 Y45.236 E7.32278
G1 X-77.406 Y44.743 E7.34918
G1 X-77.434 Y44.241 E7.37576
G1 X-77.434 Y-19.736 E10.75680
G1 X-77.410 Y-20.215 E10.78210
G1 X-77.334 Y-20.710 E10.80859
G1 X-77.245 Y-21.066 E10.82800
G1 X-77.126 Y-21.422 E10.84784
G1 X-76.980 Y-21.765 E10.86753
G1 X-76.806 Y-22.099 E10.88741
G1 X-57.247 Y-55.986 E12.95513
G1 X-57.047 Y-56.295 E12.97458
G1 X-56.818 Y-56.593 E12.99448
G1 X-56.597 Y-56.841 E13.01202
G1 X-56.331 Y-57.098 E13.03155
G1 X-56.075 Y-57.311 E13.04917
G1 X-55.769 Y-57.529 E13.06898
G1 X-55.486 Y-57.701 E13.08653
G1 X-55.156 Y-57.869 E13.10606
G1 X-54.807 Y-58.014 E13.12604
G1 X-54.454 Y-58.128 E13.14564
G1 X-54.088 Y-58.216 E13.16553
G1 X-53.679 Y-58.279 E13.18741
G1 X-53.308 Y-58.305 E13.20706
G1 X-52.899 Y-58.300 E13.22867
G1 X-52.519 Y-58.264 E13.24885
G1 X-52.158 Y-58.200 E13.26824
G1 X73.768 Y-29.616 E20.09234
G1 X74.286 Y-29.463 E20.12093
G1 X74.781 Y-29.252 E20.14933
G1 X75.251 Y-28.987 E20.17787
G1 X75.672 Y-28.683 E20.20529
G1 X76.054 Y-28.336 E20.23256
G1 X76.421 Y-27.921 E20.26185
G1 X76.744 Y-27.453 E20.29189
G1 X76.997 Y-26.979 E20.32030
G1 X77.181 Y-26.516 E20.34661
G1 X77.326 Y-25.996 E20.37517
G1 X77.406 Y-25.503 E20.40156
G1 X77.434 Y-25.006 E20.42784
G1 X77.434 Y50.938 E24.44127
G1 X77.409 Y51.369 E24.46408
G1 X77.345 Y51.797 E24.48697
G1 X77.235 Y52.243 E24.51122
G1 X77.092 Y52.653 E24.53416
G1 X76.911 Y53.050 E24.55724
G1 X76.683 Y53.446 E24.58138
G1 X76.429 Y53.805 E24.60464
G1 X76.162 Y54.118 E24.62637
G1 X75.882 Y54.396 E24.64724
G1 X75.598 Y54.635 E24.66683
G1 X75.261 Y54.874 E24.68868
G1 X74.936 Y55.066 E24.70861
G1 X74.618 Y55.223 E24.72740
G1 X74.253 Y55.369 E24.74813
G1 X73.899 Y55.478 E24.76772
G1 X73.493 Y55.567 E24.78966
G1 X51.531 Y58.301 E25.95929
G1 X-1.129 Y58.307 E28.74220
G1 X-1.661 Y58.277 E28.77034
G1 X-1.668 Y57.855 F9000.000
G1 F2700
G1 X-39.947 Y53.062 E30.80904
G1 X-73.372 Y48.509 E32.59179
G1 X-73.884 Y48.394 E32.61953
G1 X-74.378 Y48.218 E32.64723
G1 X-74.856 Y47.979 E32.67546
G1 X-75.296 Y47.686 E32.70340
G1 X-75.696 Y47.343 E32.73124
G1 X-76.058 Y46.945 E32.75969
G1 X-76.365 Y46.512 E32.78772
G1 X-76.616 Y46.046 E32.81569
G1 X-76.784 Y45.624 E32.83971
G1 X-76.917 Y45.146 E32.86595
G1 X-76.990 Y44.696 E32.89003
G1 X-77.015 Y44.239 E32.91424
G1 X-77.015 Y-19.736 E36.29514
G1 X-76.993 Y-20.175 E36.31832
G1 X-76.923 Y-20.626 E36.34247
G1 X-76.843 Y-20.948 E36.35998
G1 X-76.733 Y-21.276 E36.37827
G1 X-76.602 Y-21.585 E36.39602
G1 X-76.442 Y-21.893 E36.41435
G1 X-56.887 Y-55.773 E38.48167
G1 X-56.522 Y-56.293 E38.51523
G1 X-56.293 Y-56.553 E38.53354
G1 X-56.053 Y-56.784 E38.55115
G1 X-55.538 Y-57.180 E38.58546
G1 X-54.982 Y-57.488 E38.61906
G1 X-54.660 Y-57.621 E38.63748
G1 X-54.342 Y-57.725 E38.65514
G1 X-54.005 Y-57.806 E38.67348
G1 X-53.632 Y-57.863 E38.69344
G1 X-53.297 Y-57.886 E38.71115
G1 X-52.924 Y-57.882 E38.73090
G1 X-52.574 Y-57.848 E38.74947
G1 X-52.248 Y-57.791 E38.76697
G1 X73.647 Y-29.214 E45.58941
G1 X74.106 Y-29.082 E45.61461
G1 X74.565 Y-28.892 E45.64092
G1 X74.990 Y-28.656 E45.66656
G1 X75.408 Y-28.357 E45.69374
G1 X75.756 Y-28.043 E45.71851
G1 X76.092 Y-27.662 E45.74535
G1 X76.387 Y-27.234 E45.77281
G1 X76.616 Y-26.805 E45.79852
G1 X76.784 Y-26.383 E45.82251
G1 X76.917 Y-25.905 E45.84876
G1 X76.990 Y-25.455 E45.87282
G1 X77.015 Y-25.002 E45.89679
G1 X77.015 Y50.934 E49.90984
G1 X76.992 Y51.326 E49.93055
G1 X76.934 Y51.714 E49.95132
G1 X76.833 Y52.125 E49.97365
G1 X76.703 Y52.497 E49.99447
G1 X76.539 Y52.857 E50.01541
G1 X76.329 Y53.222 E50.03763
G1 X76.099 Y53.547 E50.05871
G1 X75.856 Y53.833 E50.07854
G1 X75.598 Y54.088 E50.09768
G1 X75.342 Y54.303 E50.11536
G1 X75.035 Y54.522 E50.13528
G1 X74.726 Y54.704 E50.15425
G1 X74.395 Y54.864 E50.17370
G1 X74.082 Y54.985 E50.19140
G1 X73.720 Y55.091 E50.21132
G1 X73.381 Y55.161 E50.22964
G1 X51.509 Y57.883 E51.39440
G1 X-1.129 Y57.888 E54.17619
G1 X-1.609 Y57.862 E54.20158
G1 X-1.616 Y57.439 F9000.000
G1 F2700
G1 X-39.892 Y52.647 E56.24016
G1 X-73.275 Y48.101 E58.02062
G1 X-73.746 Y47.998 E58.04611
G1 X-74.213 Y47.833 E58.07227
G1 X-74.644 Y47.617 E58.09774
G1 X-75.042 Y47.353 E58.12298
G1 X-75.404 Y47.043 E58.14815
G1 X-75.731 Y46.684 E58.17380
G1 X-76.008 Y46.294 E58.19912
G1 X-76.235 Y45.872 E58.22440
G1 X-76.387 Y45.492 E58.24609
G1 X-76.508 Y45.055 E58.27004
G1 X-76.574 Y44.649 E58.29177
G1 X-76.596 Y44.236 E58.31364
G1 X-76.596 Y-19.736 E61.69438
G1 X-76.576 Y-20.135 E61.71544
G1 X-76.513 Y-20.542 E61.73724
G1 X-76.341 Y-21.129 E61.76957
G1 X-76.077 Y-21.686 E61.80215
G1 X-56.526 Y-55.560 E63.86905
G1 X-56.199 Y-56.027 E63.89916
G1 X-55.776 Y-56.470 E63.93159
G1 X-55.307 Y-56.830 E63.96282
G1 X-54.808 Y-57.107 E63.99296
G1 X-54.230 Y-57.321 E64.02552
G1 X-53.921 Y-57.395 E64.04230
G1 X-53.584 Y-57.447 E64.06035
G1 X-53.286 Y-57.468 E64.07612
G1 X-52.948 Y-57.464 E64.09399
G1 X-52.338 Y-57.382 E64.12654
G1 X73.555 Y-28.806 E70.94883
G1 X73.966 Y-28.687 E70.97143
G1 X74.385 Y-28.514 E70.99543
G1 X74.765 Y-28.303 E71.01837
G1 X75.144 Y-28.032 E71.04301
G1 X75.457 Y-27.749 E71.06531
G1 X75.763 Y-27.403 E71.08971
G1 X76.030 Y-27.016 E71.11457
G1 X76.235 Y-26.631 E71.13759
G1 X76.387 Y-26.251 E71.15926
G1 X76.508 Y-25.814 E71.18320
G1 X76.575 Y-25.394 E71.20565
G1 X76.596 Y-24.999 E71.22660
G1 X76.596 Y50.931 E75.23926
G1 X76.576 Y51.283 E75.25787
G1 X76.524 Y51.632 E75.27653
G1 X76.431 Y52.007 E75.29693
G1 X76.314 Y52.340 E75.31563
G1 X76.167 Y52.664 E75.33444
G1 X75.975 Y52.997 E75.35474
G1 X75.769 Y53.289 E75.37363
G1 X75.549 Y53.548 E75.39156
G1 X75.315 Y53.779 E75.40898
G1 X75.087 Y53.971 E75.42473
G1 X74.809 Y54.169 E75.44274
G1 X74.527 Y54.335 E75.46003
G1 X74.213 Y54.486 E75.47845
G1 X73.908 Y54.601 E75.49570
G1 X73.622 Y54.684 E75.51143
G1 X73.294 Y54.751 E75.52912
G1 X51.488 Y57.464 E76.69037
G1 X-1.129 Y57.470 E79.47104
G1 X-1.557 Y57.446 E79.49367
G1 F7200
G1 X-1.914 Y57.401 E76.64367
G1 E76.49367 F60000.00000
G92 E0
G1 X36.082 Y36.005 F9000.000
G1 E3.20000 F60000.00000
G1 F2700
G1 X52.154 Y36.005 E4.04937
G1 X52.154 Y52.077 E4.89875
G1 X36.082 Y52.077 E5.74812
G1 X36.082 Y36.065 E6.59432
G1 X36.501 Y36.424 F9000.000
G1 F2700
G1 X51.735 Y36.424 E7.39942
G1 X51.735 Y51.658 E8.20452
G1 X36.501 Y51.658 E9.00962
G1 X36.501 Y36.484 E9.81155
G1 X36.898 Y36.821 F9000.000
G1 F1350
G1 X51.338 Y36.821 E10.49585
G1 X51.338 Y51.261 E11.18015
G1 X36.898 Y51.261 E11.86445
G1 X36.898 Y36.881 E12.54591
G1 X36.794 Y36.435 F9000.000
G1 F7200
G1 X37.258 Y36.879 E9.69592
G1 E9.54591 F60000.00000
G92 E0
G1 X36.082 Y33.027 F9000.000
G1 E3.20000 F60000.00000
G1 F2700
G1 X36.082 Y16.955 E4.04937
G1 X52.154 Y16.955 E4.89875
G1 X52.154 Y33.027 E5.74812
G1 X36.142 Y33.027 E6.59432
G1 X36.501 Y32.608 F9000.000
G1 F2700
G1 X36.501 Y17.374 E7.39942
G1 X51.735 Y17.374 E8.20452
G1 X51.735 Y32.608 E9.00962
G1 X36.561 Y32.608 E9.81155
G1 X36.898 Y32.211 F9000.000
G1 F1350
G1 X36.898 Y17.771 E10.49585
G1 X51.338 Y17.771 E11.18015
G1 X51.338 Y32.211 E11.86445
G1 X36.958 Y32.211 E12.54591
G1 X36.512 Y32.315 F9000.000
G1 F7200
G1 X36.956 Y31.851 E9.69591
G1 E9.54591 F60000.00000
G92 E0
G1 X36.082 Y13.977 F9000.000
G1 E3.20000 F60000.00000
G1 F2700
G1 X36.082 Y-2.095 E4.04937
G1 X52.154 Y-2.095 E4.89875
G1 X52.154 Y13.977 E5.74812
G1 X36.142 Y13.977 E6.59432
G1 X36.501 Y13.558 F9000.000
G1 F2700
G1 X36.501 Y-1.676 E7.39942
G1 X51.735 Y-1.676 E8.20452
G1 X51.735 Y13.558 E9.00962
G1 X36.561 Y13.558 E9.81155
G1 X36.898 Y13.161 F9000.000
G1 F1350
G1 X36.898 Y-1.279 E10.49585
G1 X51.338 Y-1.279 E11.18015
G1 X51.338 Y13.161 E11.86445
G1 X36.958 Y13.161 E12.54591
G1 X36.512 Y13.265 F9000.000
G1 F7200
G1 X36.956 Y12.801 E9.69591
G1 E9.54591 F60000.00000
G92 E0
G1 X36.082 Y-5.073 F9000.000
G1 E3.20000 F60000.00000
G1 F2700
G1 X36.082 Y-21.145 E4.04937
G1 X52.154 Y-21.145 E4.89875
G1 X52.154 Y-5.073 E5.74812
G1 X36.142 Y-5.073 E6.59432
G1 X36.501 Y-5.492 F9000.000
G1 F2700
G1 X36.501 Y-20.726 E7.39942
G1 X51.735 Y-20.726 E8.20452
G1 X51.735 Y-5.492 E9.00962
G1 X36.561 Y-5.492 E9.81155
G1 X36.898 Y-5.889 F9000.000
G1 F1350
G1 X36.898 Y-20.329 E10.49585
G1 X51.338 Y-20.329 E11.18015
G1 X51.338 Y-5.889 E11.86446
G1 X36.958 Y-5.889 E12.54592
G1 X36.512 Y-5.785 F9000.000
G1 F7200
G1 X36.956 Y-6.249 E9.69591
G1 E9.54592 F60000.00000
G92 E0
G1 X36.118 Y-5.109 F9000.000
G1 X36.118 Y-3.584 F9000.000
G1 X53.262 Y-3.584 F9000.000
G1 X54.024 Y-5.965 F9000.000
G1 X55.168 Y-5.965 F9000.000
G1 X55.132 Y-7.454 F9000.000
G1 E3.20000 F60000.00000
G1 F2700
G1 X55.132 Y-23.526 E4.04937
G1 X71.204 Y-23.526 E4.89875
G1 X71.204 Y-7.454 E5.74812
G1 X55.192 Y-7.454 E6.59432
G1 X55.551 Y-7.873 F9000.000
G1 F2700
G1 X55.551 Y-23.108 E7.39942
G1 X70.785 Y-23.108 E8.20452
G1 X70.785 Y-7.873 E9.00962
G1 X55.611 Y-7.873 E9.81155
G1 X55.948 Y-8.270 F9000.000
G1 F1350
G1 X55.948 Y-22.710 E10.49585
G1 X70.388 Y-22.710 E11.18015
G1 X70.388 Y-8.270 E11.86445
G1 X56.008 Y-8.270 E12.54591
G1 X55.562 Y-8.167 F9000.000
G1 F7200
G1 X56.006 Y-8.630 E9.69591
G1 E9.54591 F60000.00000
G92 E0
G1 X55.132 Y-4.476 F9000.000
G1 E3.20000 F60000.00000
G1 F2700
G1 X71.204 Y-4.476 E4.04937
G1 X71.204 Y11.596 E4.89875
G1 X55.132 Y11.596 E5.74812
G1 X55.132 Y-4.416 E6.59432
G1 X55.551 Y-4.058 F9000.000
G1 F2700
G1 X70.785 Y-4.058 E7.39942
G1 X70.785 Y11.177 E8.20452
G1 X55.551 Y11.177 E9.00962
G1 X55.551 Y-3.998 E9.81155
G1 X55.948 Y-3.660 F9000.000
G1 F1350
G1 X70.388 Y-3.660 E10.49585
G1 X70.388 Y10.780 E11.18015
G1 X55.948 Y10.780 E11.86445
G1 X55.948 Y-3.600 E12.54591
G1 X55.844 Y-4.047 F9000.000
G1 F7200
G1 X56.308 Y-3.602 E9.69592
G1 E9.54591 F60000.00000
G92 E0
G1 X55.132 Y14.574 F9000.000
G1 E3.20000 F60000.00000
G1 F2700
G1 X71.204 Y14.574 E4.04937
G1 X71.204 Y30.646 E4.89875
G1 X55.132 Y30.646 E5.74812
G1 X55.132 Y14.634 E6.59432
G1 X55.551 Y14.992 F9000.000
G1 F2700
G1 X70.785 Y14.992 E7.39942
G1 X70.785 Y30.227 E8.20452
G1 X55.551 Y30.227 E9.00962
G1 X55.551 Y15.052 E9.81155
G1 X55.948 Y15.390 F9000.000
G1 F1350
G1 X70.388 Y15.390 E10.49585
G1 X70.388 Y29.830 E11.18015
G1 X55.948 Y29.830 E11.86445
G1 X55.948 Y15.450 E12.54591
G1 X55.844 Y15.003 F9000.000
G1 F7200
G1 X56.308 Y15.448 E9.69592
G1 E9.54591 F60000.00000
G92 E0
G1 X55.132 Y33.624 F9000.000
G1 E3.20000 F60000.00000
G1 F2700
G1 X71.204 Y33.624 E4.04937
G1 X71.204 Y49.696 E4.89875
G1 X55.132 Y49.696 E5.74812
G1 X55.132 Y33.684 E6.59432
G1 X55.551 Y34.042 F9000.000
G1 F2700
G1 X70.785 Y34.042 E7.39942
G1 X70.785 Y49.277 E8.20452
G1 X55.551 Y49.277 E9.00962
G1 X55.551 Y34.102 E9.81155
G1 X55.948 Y34.440 F9000.000
G1 F1350
G1 X70.388 Y34.440 E10.49585
G1 X70.388 Y48.880 E11.18015
G1 X55.948 Y48.880 E11.86445
G1 X55.948 Y34.500 E12.54591
G1 X55.844 Y34.053 F9000.000
G1 F7200
G1 X56.308 Y34.498 E9.69592
G1 E9.54591 F60000.00000
G92 E0
G1 X33.104 Y33.624 F9000.000
G1 E3.20000 F60000.00000
G1 F2700
G1 X33.104 Y49.696 E4.04937
G1 X17.032 Y49.696 E4.89875
G1 X17.032 Y33.624 E5.74812
G1 X33.044 Y33.624 E6.59432
G1 X32.685 Y34.042 F9000.000
G1 F2700
G1 X32.685 Y49.277 E7.39942
G1 X17.451 Y49.277 E8.20452
G1 X17.451 Y34.042 E9.00962
G1 X32.625 Y34.042 E9.81155
G1 X32.288 Y34.440 F9000.000
G1 F1350
G1 X32.288 Y48.880 E10.49585
G1 X17.848 Y48.880 E11.18015
G1 X17.848 Y34.440 E11.86445
G1 X32.228 Y34.440 E12.54591
G1 X32.674 Y34.336 F9000.000
G1 F7200
G1 X32.229 Y34.800 E9.69592
G1 E9.54591 F60000.00000
G92 E0
G1 X33.104 Y30.646 F9000.000
G1 E3.20000 F60000.00000
G1 F2700
G1 X17.032 Y30.646 E4.04937
G1 X17.032 Y14.574 E4.89875
G1 X33.104 Y14.574 E5.74812
G1 X33.104 Y30.586 E6.59432
G1 X32.685 Y30.227 F9000.000
G1 F2700
G1 X17.451 Y30.227 E7.39942
G1 X17.451 Y14.992 E8.20452
G1 X32.685 Y14.992 E9.00962
G1 X32.685 Y30.167 E9.81155
G1 X32.288 Y29.830 F9000.000
G1 F1350
G1 X17.848 Y29.830 E10.49585
G1 X17.848 Y15.390 E11.18015
G1 X32.288 Y15.390 E11.86445
G1 X32.288 Y29.770 E12.54591
G1 X32.391 Y30.216 F9000.000
G1 F7200
G1 X31.928 Y29.771 E9.69591
G1 E9.54591 F60000.00000
G92 E0
G1 X33.104 Y11.596 F9000.000
G1 E3.20000 F60000.00000
G1 F2700
G1 X17.032 Y11.596 E4.04937
G1 X17.032 Y-4.476 E4.89875
G1 X33.104 Y-4.476 E5.74812
G1 X33.104 Y11.536 E6.59432
G1 X32.685 Y11.177 F9000.000
G1 F2700
G1 X17.451 Y11.177 E7.39942
G1 X17.451 Y-4.058 E8.20452
G1 X32.685 Y-4.058 E9.00962
G1 X32.685 Y11.117 E9.81155
G1 X32.288 Y10.780 F9000.000
G1 F1350
G1 X17.848 Y10.780 E10.49585
G1 X17.848 Y-3.660 E11.18015
G1 X32.288 Y-3.660 E11.86445
G1 X32.288 Y10.720 E12.54591
G1 X32.391 Y11.166 F9000.000
G1 F7200
G1 X31.928 Y10.721 E9.69591
G1 E9.54591 F60000.00000
G92 E0
G1 X33.104 Y-7.454 F9000.000
G1 E3.20000 F60000.00000
G1 F2700
G1 X17.032 Y-7.454 E4.04937
G1 X17.032 Y-23.526 E4.89875
G1 X33.104 Y-23.526 E5.74812
G1 X33.104 Y-7.514 E6.59432
G1 X32.685 Y-7.873 F9000.000
G1 F2700
G1 X17.451 Y-7.873 E7.39942
G1 X17.451 Y-23.108 E8.20452
G1 X32.685 Y-23.108 E9.00962
G1 X32.685 Y-7.933 E9.81155
G1 X32.288 Y-8.270 F9000.000
G1 F1350
G1 X17.848 Y-8.270 E10.49585
G1 X17.848 Y-22.710 E11.18015
G1 X32.288 Y-22.710 E11.86445
G1 X32.288 Y-8.330 E12.54591
G1 X32.391 Y-7.884 F9000.000
G1 F7200
G1 X31.928 Y-8.329 E9.69591
G1 E9.54591 F60000.00000
G92 E0
G1 X14.054 Y-5.073 F9000.000
G1 E3.20000 F60000.00000
G1 F2700
G1 X-2.018 Y-5.073 E4.04937
G1 X-2.018 Y-21.145 E4.89875
G1 X14.054 Y-21.145 E5.74812
G1 X14.054 Y-5.133 E6.59432
G1 X13.635 Y-5.492 F9000.000
G1 F2700
G1 X-1.599 Y-5.492 E7.39942
G1 X-1.599 Y-20.726 E8.20452
G1 X13.635 Y-20.726 E9.00962
G1 X13.635 Y-5.552 E9.81155
G1 X13.238 Y-5.889 F9000.000
G1 F1350
G1 X-1.202 Y-5.889 E10.49585
G1 X-1.202 Y-20.329 E11.18015
G1 X13.238 Y-20.329 E11.86446
G1 X13.238 Y-5.949 E12.54592
G1 X13.341 Y-5.503 F9000.000
G1 F7200
G1 X12.878 Y-5.948 E9.69591
G1 E9.54592 F60000.00000
G92 E0
G1 X14.054 Y-2.095 F9000.000
G1 E3.20000 F60000.00000
G1 F2700
G1 X14.054 Y13.977 E4.04937
G1 X-2.018 Y13.977 E4.89875
G1 X-2.018 Y-2.095 E5.74812
G1 X13.994 Y-2.095 E6.59432
G1 X13.635 Y-1.676 F9000.000
G1 F2700
G1 X13.635 Y13.558 E7.39942
G1 X-1.599 Y13.558 E8.20452
G1 X-1.599 Y-1.676 E9.00962
G1 X13.575 Y-1.676 E9.81155
G1 X13.238 Y-1.279 F9000.000
G1 F1350
G1 X13.238 Y13.161 E10.49585
G1 X-1.202 Y13.161 E11.18015
G1 X-1.202 Y-1.279 E11.86445
G1 X13.178 Y-1.279 E12.54591
G1 X13.624 Y-1.383 F9000.000
G1 F7200
G1 X13.179 Y-0.919 E9.69592
G1 E9.54591 F60000.00000
G92 E0
G1 X14.054 Y16.955 F9000.000
G1 E3.20000 F60000.00000
G1 F2700
G1 X14.054 Y33.027 E4.04937
