; generated by Slic3r 1.3.0 on 2023-04-01 at 20:24:04

; external perimeters extrusion width = 0.44mm (3.97mm^3/s)
; perimeters extrusion width = 0.56mm (10.34mm^3/s)
; infill extrusion width = 0.50mm (9.14mm^3/s)
; solid infill extrusion width = 0.56mm (7.76mm^3/s)
; top infill extrusion width = 0.56mm (3.88mm^3/s)
; support material extrusion width = 0.44mm (7.94mm^3/s)

M107
M104 S220 ; start preheating
M280 S3.24 ; deploy probe
G31 J83 ; do bed mesh
M374 ; save bed mesh
M375 ; load bed mesh
G0 X0 Y0 Z5 F5000 ; Move just above bed center
G30 Z1.35 ; Set probe offset
G0 Z5 ; Back off
M280 S7.36 ; retract probe
G1 Z5 F5000 ; lift nozzle
M109 S220 ; finish preheating

; Filament gcode

G21 ; set units to millimeters
G90 ; use absolute coordinates
M82 ; use absolute distances for extrusion
G92 E0
G1 Z0.200 F12000.000
G1 E-3.00000 F60000.00000
G92 E0
G1 X1.653 Y58.575 F12000.000
G1 E3.20000 F60000.00000
M204 S2000
G1 F1500
G1 X1.129 Y58.602 E3.22279
G1 X-51.553 Y58.595 E5.51401
G1 X-51.912 Y58.563 E5.52966
G1 X-73.543 Y55.857 E6.47777
G1 X-73.973 Y55.763 E6.49689
G1 X-74.352 Y55.646 E6.51414
G1 X-74.724 Y55.499 E6.53153
G1 X-75.115 Y55.305 E6.55054
G1 X-75.456 Y55.099 E6.56783
G1 X-75.778 Y54.868 E6.58511
G1 X-76.113 Y54.583 E6.60422
G1 X-76.394 Y54.302 E6.62152
G1 X-76.704 Y53.931 E6.64254
G1 X-76.955 Y53.567 E6.66177
G1 X-77.189 Y53.152 E6.68246
G1 X-77.373 Y52.742 E6.70204
G1 X-77.518 Y52.325 E6.72120
G1 X-77.634 Y51.855 E6.74227
G1 X-77.700 Y51.422 E6.76133
G1 X-77.728 Y50.947 E6.78201
G1 X-77.729 Y-24.994 E10.08476
G1 X-77.699 Y-25.535 E10.10835
G1 X-77.614 Y-26.056 E10.13129
G1 X-77.461 Y-26.609 E10.15625
G1 X-77.265 Y-27.101 E10.17928
G1 X-76.996 Y-27.607 E10.20422
G1 X-76.672 Y-28.078 E10.22908
G1 X-76.295 Y-28.511 E10.25404
G1 X-75.874 Y-28.898 E10.27891
G1 X-75.409 Y-29.235 E10.30387
G1 X-74.905 Y-29.520 E10.32905
G1 X-74.385 Y-29.740 E10.35363
G1 X-73.836 Y-29.903 E10.37850
G1 X52.099 Y-58.489 E15.99487
G1 X52.525 Y-58.562 E16.01367
G1 X52.920 Y-58.596 E16.03091
G1 X53.324 Y-58.599 E16.04850
G1 X53.713 Y-58.572 E16.06544
G1 X54.147 Y-58.505 E16.08456
G1 X54.533 Y-58.412 E16.10184
G1 X54.910 Y-58.290 E16.11907
G1 X55.279 Y-58.137 E16.13642
G1 X55.600 Y-57.974 E16.15209
G1 X55.932 Y-57.774 E16.16895
G1 X56.254 Y-57.545 E16.18613
G1 X56.526 Y-57.318 E16.20154
G1 X56.810 Y-57.044 E16.21871
G1 X57.073 Y-56.747 E16.23595
G1 X57.287 Y-56.466 E16.25132
G1 X57.501 Y-56.135 E16.26845
G1 X77.063 Y-22.244 E17.97032
G1 X77.246 Y-21.892 E17.98757
G1 X77.402 Y-21.525 E18.00494
G1 X77.527 Y-21.150 E18.02210
G1 X77.621 Y-20.776 E18.03887
G1 X77.699 Y-20.287 E18.06042
G1 X77.728 Y-19.826 E18.08049
G1 X77.996 Y-4.947 E18.72771
G1 X77.996 Y-2.252 E18.84492
G1 X77.728 Y44.294 E20.86930
G1 X77.694 Y44.821 E20.89224
G1 X77.604 Y45.344 E20.91531
G1 X77.461 Y45.851 E20.93825
G1 X77.265 Y46.342 E20.96125
G1 X77.041 Y46.773 E20.98235
G1 X76.757 Y47.206 E21.00488
G1 X76.435 Y47.604 E21.02715
G1 X76.074 Y47.967 E21.04941
G1 X75.699 Y48.276 E21.07053
G1 X75.261 Y48.568 E21.09342
G1 X74.823 Y48.800 E21.11498
G1 X74.344 Y48.996 E21.13751
G1 X73.819 Y49.148 E21.16125
G1 X59.906 Y52.378 E21.78245
G1 X51.230 Y53.558 E22.16327
G1 X1.712 Y58.569 E24.32782
G1 X1.601 Y58.060 F12000.000
G1 F1500
G1 X1.129 Y58.085 E24.34834
G1 X-51.525 Y58.078 E26.63835
G1 X-73.414 Y55.354 E27.59765
G1 X-73.769 Y55.281 E27.61343
G1 X-74.145 Y55.171 E27.63046
G1 X-74.473 Y55.044 E27.64577
G1 X-74.830 Y54.871 E27.66299
G1 X-75.141 Y54.687 E27.67870
G1 X-75.463 Y54.458 E27.69589
G1 X-75.763 Y54.203 E27.71305
G1 X-76.012 Y53.953 E27.72838
G1 X-76.293 Y53.616 E27.74745
G1 X-76.518 Y53.290 E27.76469
G1 X-76.727 Y52.921 E27.78311
G1 X-76.892 Y52.553 E27.80065
G1 X-77.022 Y52.180 E27.81785
G1 X-77.127 Y51.753 E27.83696
G1 X-77.186 Y51.364 E27.85408
G1 X-77.211 Y50.941 E27.87249
G1 X-77.212 Y-24.992 E31.17491
G1 X-77.185 Y-25.477 E31.19603
G1 X-77.109 Y-25.945 E31.21663
G1 X-76.971 Y-26.445 E31.23923
G1 X-76.794 Y-26.886 E31.25989
G1 X-76.555 Y-27.337 E31.28209
G1 X-76.262 Y-27.764 E31.30460
G1 X-75.927 Y-28.149 E31.32680
G1 X-75.545 Y-28.499 E31.34932
G1 X-75.132 Y-28.799 E31.37154
G1 X-74.676 Y-29.056 E31.39430
G1 X-74.212 Y-29.253 E31.41621
G1 X-73.691 Y-29.406 E31.43983
G1 X52.209 Y-57.984 E37.05462
G1 X52.592 Y-58.049 E37.07153
G1 X52.942 Y-58.080 E37.08681
G1 X53.309 Y-58.082 E37.10276
G1 X53.654 Y-58.058 E37.11780
G1 X54.044 Y-57.998 E37.13497
G1 X54.395 Y-57.914 E37.15067
G1 X54.729 Y-57.805 E37.16594
G1 X55.064 Y-57.667 E37.18170
G1 X55.647 Y-57.343 E37.21069
G1 X55.939 Y-57.135 E37.22631
G1 X56.183 Y-56.931 E37.24014
G1 X56.435 Y-56.688 E37.25536
G1 X56.674 Y-56.418 E37.27104
G1 X57.056 Y-55.873 E37.30000
G1 X76.613 Y-21.989 E39.00146
G1 X76.779 Y-21.670 E39.01714
G1 X76.918 Y-21.344 E39.03253
G1 X77.031 Y-21.004 E39.04813
G1 X77.115 Y-20.671 E39.06304
G1 X77.185 Y-20.229 E39.08253
G1 X77.211 Y-19.817 E39.10046
G1 X77.479 Y-4.938 E39.74768
G1 X77.479 Y-2.255 E39.86435
G1 X77.211 Y44.290 E41.88867
G1 X77.180 Y44.762 E41.90926
G1 X77.099 Y45.232 E41.92997
G1 X76.970 Y45.687 E41.95056
G1 X76.794 Y46.128 E41.97120
G1 X76.595 Y46.510 E41.98994
G1 X76.335 Y46.908 E42.01063
G1 X76.035 Y47.275 E42.03124
G1 X75.699 Y47.608 E42.05182
G1 X75.357 Y47.885 E42.07095
G1 X74.959 Y48.146 E42.09167
G1 X74.538 Y48.362 E42.11223
G1 X74.137 Y48.521 E42.13100
G1 X73.702 Y48.645 E42.15066
G1 X59.836 Y51.866 E42.76975
G1 X51.178 Y53.044 E43.14979
G1 X1.660 Y58.054 E45.31434
G1 X1.549 Y57.546 F12000.000
G1 F1500
G1 X1.129 Y57.568 E45.33260
G1 X-51.497 Y57.562 E47.62139
G1 X-73.327 Y54.845 E48.57813
G1 X-73.647 Y54.779 E48.59231
G1 X-73.980 Y54.681 E48.60741
G1 X-74.266 Y54.570 E48.62077
G1 X-74.582 Y54.417 E48.63603
G1 X-74.862 Y54.252 E48.65016
G1 X-75.147 Y54.049 E48.66539
G1 X-75.413 Y53.822 E48.68059
G1 X-75.630 Y53.604 E48.69396
G1 X-75.882 Y53.302 E48.71107
G1 X-76.082 Y53.013 E48.72634
G1 X-76.264 Y52.690 E48.74248
G1 X-76.410 Y52.365 E48.75798
G1 X-76.525 Y52.034 E48.77322
G1 X-76.620 Y51.651 E48.79038
G1 X-76.672 Y51.306 E48.80554
G1 X-76.694 Y50.931 E48.82190
G1 X-76.695 Y-24.990 E52.12377
G1 X-76.671 Y-25.419 E52.14243
G1 X-76.604 Y-25.833 E52.16070
G1 X-76.480 Y-26.281 E52.18093
G1 X-76.324 Y-26.672 E52.19922
G1 X-76.114 Y-27.067 E52.21868
G1 X-75.851 Y-27.449 E52.23884
G1 X-75.558 Y-27.786 E52.25828
G1 X-75.216 Y-28.100 E52.27846
G1 X-74.854 Y-28.363 E52.29793
G1 X-74.447 Y-28.593 E52.31826
G1 X-74.039 Y-28.765 E52.33750
G1 X-73.576 Y-28.902 E52.35849
G1 X52.314 Y-57.477 E57.97287
G1 X52.938 Y-57.562 E58.00027
G1 X53.289 Y-57.566 E58.01549
G1 X53.595 Y-57.544 E58.02886
G1 X53.941 Y-57.491 E58.04408
G1 X54.257 Y-57.416 E58.05820
G1 X54.849 Y-57.196 E58.08566
G1 X55.361 Y-56.912 E58.11114
G1 X55.841 Y-56.544 E58.13743
G1 X56.275 Y-56.089 E58.16478
G1 X56.611 Y-55.610 E58.19024
G1 X76.163 Y-21.735 E59.89129
G1 X76.433 Y-21.163 E59.91879
G1 X76.608 Y-20.566 E59.94584
G1 X76.671 Y-20.170 E59.96328
G1 X76.694 Y-19.808 E59.97907
G1 X76.962 Y-4.929 E60.62629
G1 X76.962 Y-2.258 E60.74243
G1 X76.694 Y44.285 E62.76667
G1 X76.666 Y44.704 E62.78492
G1 X76.594 Y45.120 E62.80327
G1 X76.480 Y45.523 E62.82151
G1 X76.324 Y45.913 E62.83979
G1 X76.150 Y46.248 E62.85618
G1 X75.919 Y46.600 E62.87451
G1 X75.654 Y46.926 E62.89277
G1 X75.356 Y47.221 E62.91101
G1 X75.050 Y47.469 E62.92816
G1 X74.696 Y47.700 E62.94652
G1 X74.324 Y47.892 E62.96474
G1 X73.931 Y48.044 E62.98305
G1 X73.585 Y48.141 E62.99870
G1 X59.767 Y51.353 E63.61569
G1 X51.126 Y52.529 E63.99496
G1 X1.608 Y57.540 E66.15951
G1 F9600
G1 X1.545 Y57.546 E65.78265
G1 F9600
G1 X1.502 Y57.550 E65.52771
G1 F9600
G1 X1.476 Y57.553 E65.36922
G1 F9600
G1 X1.433 Y57.556 E65.11322
G1 F9600
G1 X1.431 Y57.556 E65.10187
G1 F9600
G1 X1.431 Y57.556 E65.10001
G1 F9600
G1 X1.406 Y57.558 E64.95432
G1 F9600
G1 X1.362 Y57.561 E64.69021
G1 F9600
G1 X1.335 Y57.562 E64.53216
G1 F9600
G1 X1.292 Y57.564 E64.27796
G1 F9600
G1 X1.266 Y57.565 E64.12068
G1 F9600
G1 X1.222 Y57.567 E63.85918
G1 F9600
G1 X1.212 Y57.567 E63.79989
G1 F9600
G1 X1.212 Y57.567 E63.79799
G1 F9600
G1 X1.194 Y57.567 E63.69024
G1 F9600
G1 X1.145 Y57.568 E63.39923
G1 F9600
G1 X1.129 Y57.568 E63.30950
G1 E63.15951 F60000.00000
G92 E0
G1 X-13.695 Y36.364 F12000.000
G1 E3.20000 F60000.00000
G1 F1500
G1 X1.659 Y36.364 E3.86777
G1 X1.659 Y51.718 E4.53553
G1 X-13.695 Y51.718 E5.20330
G1 X-13.695 Y36.424 E5.86846
G1 X-13.238 Y36.821 F12000.000
G1 F750
G1 X1.202 Y36.821 E6.35073
G1 X1.202 Y51.261 E6.83299
G1 X-13.238 Y51.261 E7.31526
G1 X-13.238 Y36.881 E7.79552
G1 X-13.341 Y36.435 F12000.000
G1 F9600
G1 X-12.758 Y36.879 E4.94552
G1 E4.79552 F60000.00000
G92 E0
G1 X-13.695 Y32.668 F12000.000
G1 E3.20000 F60000.00000
G1 F1500
G1 X-13.695 Y17.314 E3.86777
G1 X1.659 Y17.314 E4.53553
G1 X1.659 Y32.668 E5.20330
G1 X-13.635 Y32.668 E5.86846
G1 X-13.238 Y32.211 F12000.000
G1 F750
G1 X-13.238 Y17.771 E6.35072
G1 X1.202 Y17.771 E6.83299
G1 X1.202 Y32.211 E7.31526
G1 X-13.178 Y32.211 E7.79552
G1 X-13.624 Y32.315 F12000.000
G1 F9600
G1 X-13.180 Y31.731 E4.94552
G1 E4.79552 F60000.00000
G92 E0
G1 X-13.695 Y13.618 F12000.000
G1 E3.20000 F60000.00000
G1 F1500
G1 X-13.695 Y-1.736 E3.86777
G1 X1.659 Y-1.736 E4.53553
G1 X1.659 Y13.618 E5.20330
G1 X-13.635 Y13.618 E5.86846
G1 X-13.238 Y13.161 F12000.000
G1 F750
G1 X-13.238 Y-1.279 E6.35072
G1 X1.202 Y-1.279 E6.83299
G1 X1.202 Y13.161 E7.31526
G1 X-13.178 Y13.161 E7.79552
G1 X-13.624 Y13.265 F12000.000
G1 F9600
G1 X-13.180 Y12.681 E4.94552
G1 E4.79552 F60000.00000
G92 E0
G1 X-13.695 Y-5.432 F12000.000
G1 E3.20000 F60000.00000
G1 F1500
G1 X-13.695 Y-20.786 E3.86777
G1 X1.659 Y-20.786 E4.53553
G1 X1.659 Y-5.432 E5.20330
G1 X-13.635 Y-5.432 E5.86846
G1 X-13.238 Y-5.889 F12000.000
G1 F750
G1 X-13.238 Y-20.329 E6.35073
G1 X1.202 Y-20.329 E6.83299
G1 X1.202 Y-5.889 E7.31526
G1 X-13.178 Y-5.889 E7.79552
G1 X-13.624 Y-5.785 F12000.000
G1 F9600
G1 X-13.180 Y-6.369 E4.94552
G1 E4.79552 F60000.00000
G92 E0
G1 X-14.018 Y-5.109 F12000.000
G1 X-14.018 Y-3.584 F12000.000
G1 X3.126 Y-3.584 F12000.000
G1 X3.888 Y-5.965 F12000.000
G1 X5.032 Y-5.965 F12000.000
G1 X5.032 Y-7.490 F12000.000
G1 X5.355 Y-7.813 F12000.000
G1 E3.20000 F60000.00000
G1 F1500
G1 X5.355 Y-23.167 E3.86777
G1 X20.709 Y-23.167 E4.53553
G1 X20.709 Y-7.813 E5.20330
G1 X5.415 Y-7.813 E5.86846
G1 X5.812 Y-8.270 F12000.000
G1 F750
G1 X5.812 Y-22.710 E6.35072
G1 X20.252 Y-22.710 E6.83299
G1 X20.252 Y-8.270 E7.31526
G1 X5.872 Y-8.270 E7.79552
G1 X5.426 Y-8.167 F12000.000
G1 F9600
G1 X5.870 Y-8.750 E4.94552
G1 E4.79552 F60000.00000
G92 E0
G1 X5.355 Y-4.117 F12000.000
G1 E3.20000 F60000.00000
G1 F1500
G1 X20.709 Y-4.117 E3.86777
G1 X20.709 Y11.237 E4.53553
G1 X5.355 Y11.237 E5.20330
G1 X5.355 Y-4.057 E5.86846
G1 X5.812 Y-3.660 F12000.000
G1 F750
G1 X20.252 Y-3.660 E6.35072
G1 X20.252 Y10.780 E6.83299
G1 X5.812 Y10.780 E7.31526
G1 X5.812 Y-3.600 E7.79552
G1 X5.709 Y-4.047 F12000.000
G1 F9600
G1 X6.292 Y-3.602 E4.94552
G1 E4.79552 F60000.00000
G92 E0
G1 X5.355 Y14.933 F12000.000
G1 E3.20000 F60000.00000
G1 F1500
G1 X20.709 Y14.933 E3.86777
G1 X20.709 Y30.287 E4.53553
G1 X5.355 Y30.287 E5.20330
G1 X5.355 Y14.993 E5.86846
G1 X5.812 Y15.390 F12000.000
G1 F750
G1 X20.252 Y15.390 E6.35072
G1 X20.252 Y29.830 E6.83299
G1 X5.812 Y29.830 E7.31526
G1 X5.812 Y15.450 E7.79552
G1 X5.709 Y15.003 F12000.000
G1 F9600
G1 X6.292 Y15.448 E4.94552
G1 E4.79552 F60000.00000
G92 E0
G1 X5.355 Y33.983 F12000.000
G1 E3.20000 F60000.00000
G1 F1500
G1 X20.709 Y33.983 E3.86777
G1 X20.709 Y49.337 E4.53553
G1 X5.355 Y49.337 E5.20330
G1 X5.355 Y34.043 E5.86846
G1 X5.812 Y34.440 F12000.000
G1 F750
G1 X20.252 Y34.440 E6.35072
G1 X20.252 Y48.880 E6.83299
G1 X5.812 Y48.880 E7.31526
G1 X5.812 Y34.500 E7.79552
G1 X5.709 Y34.053 F12000.000
G1 F9600
G1 X6.292 Y34.498 E4.94552
G1 E4.79552 F60000.00000
G92 E0
G1 X24.405 Y31.601 F12000.000
G1 E3.20000 F60000.00000
G1 F1500
G1 X39.759 Y31.601 E3.86777
G1 X39.759 Y46.956 E4.53553
G1 X24.405 Y46.956 E5.20330
G1 X24.405 Y31.661 E5.86846
G1 X24.862 Y32.058 F12000.000
G1 F750
G1 X39.302 Y32.058 E6.35072
G1 X39.302 Y46.498 E6.83299
G1 X24.862 Y46.498 E7.31526
G1 X24.862 Y32.118 E7.79552
G1 X24.759 Y31.672 F12000.000
G1 F9600
G1 X25.342 Y32.116 E4.94552
G1 E4.79552 F60000.00000
G92 E0
G1 X24.405 Y27.906 F12000.000
G1 E3.20000 F60000.00000
G1 F1500
G1 X24.405 Y12.551 E3.86777
G1 X39.759 Y12.551 E4.53553
G1 X39.759 Y27.906 E5.20330
G1 X24.465 Y27.906 E5.86846
G1 X24.862 Y27.448 F12000.000
G1 F750
G1 X24.862 Y13.008 E6.35072
G1 X39.302 Y13.008 E6.83299
G1 X39.302 Y27.448 E7.31526
G1 X24.922 Y27.448 E7.79552
G1 X24.476 Y27.552 F12000.000
G1 F9600
G1 X24.920 Y26.968 E4.94552
G1 E4.79552 F60000.00000
G92 E0
G1 X24.405 Y8.856 F12000.000
G1 E3.20000 F60000.00000
G1 F1500
G1 X24.405 Y-6.499 E3.86777
G1 X39.759 Y-6.499 E4.53553
G1 X39.759 Y8.856 E5.20330
G1 X24.465 Y8.856 E5.86846
G1 X24.862 Y8.398 F12000.000
G1 F750
G1 X24.862 Y-6.042 E6.35073
G1 X39.302 Y-6.042 E6.83299
G1 X39.302 Y8.398 E7.31526
G1 X24.922 Y8.398 E7.79552
G1 X24.476 Y8.502 F12000.000
G1 F9600
G1 X24.920 Y7.918 E4.94552
G1 E4.79552 F60000.00000
G92 E0
G1 X24.082 Y9.178 F12000.000
G1 X22.557 Y9.178 F12000.000
G1 X22.557 Y-4.440 F12000.000
G1 X22.176 Y-5.965 F12000.000
G1 X22.630 Y-7.490 F12000.000
G1 X24.082 Y-9.872 F12000.000
G1 X27.221 Y-13.010 F12000.000
G1 X27.340 Y-12.941 F12000.000
G1 X32.640 Y-16.001 F12000.000
G1 X32.759 Y-16.442 F12000.000
G1 E3.20000 F60000.00000
G1 F1500
G1 X25.081 Y-29.739 E3.86777
G1 X38.379 Y-37.417 E4.53553
G1 X46.056 Y-24.119 E5.20330
G1 X32.810 Y-16.472 E5.86846
G1 X32.926 Y-17.067 F12000.000
G1 F750
G1 X25.706 Y-29.572 E6.35072
G1 X38.211 Y-36.792 E6.83299
G1 X45.431 Y-24.287 E7.31526
G1 X32.978 Y-17.097 E7.79552
G1 X32.643 Y-16.784 F12000.000
G1 F9600
G1 X32.736 Y-17.511 E4.94551
G1 E4.79552 F60000.00000
G92 E0
G1 X49.256 Y-25.967 F12000.000
G1 E3.20000 F60000.00000
G1 F1500
G1 X41.579 Y-39.264 E3.86777
G1 X54.876 Y-46.942 E4.53553
G1 X62.553 Y-33.644 E5.20330
G1 X49.308 Y-25.997 E5.86846
G1 X49.424 Y-26.592 F12000.000
G1 F750
G1 X42.204 Y-39.097 E6.35072
G1 X54.709 Y-46.317 E6.83299
G1 X61.929 Y-33.812 E7.31526
G1 X49.476 Y-26.622 E7.79552
G1 X49.141 Y-26.309 F12000.000
G1 F9600
G1 X49.234 Y-27.036 E4.94551
G1 E4.79552 F60000.00000
G92 E0
G1 X49.138 Y-25.526 F12000.000
G1 X47.817 Y-24.764 F12000.000
G1 X37.949 Y-41.856 F12000.000
G1 X36.553 Y-41.224 F12000.000
G1 X22.694 Y-33.229 F12000.000
G1 X19.055 Y-29.123 F12000.000
G1 X11.795 Y-27.332 F12000.000
G1 X5.032 Y-26.168 F12000.000
G1 X1.803 Y-24.489 F12000.000
G1 X-3.971 Y-23.991 F12000.000
G1 X-14.380 Y-23.789 F12000.000
G1 X-14.613 Y-23.490 F12000.000
G1 X-17.068 Y-23.490 F12000.000
G1 X-17.391 Y-23.167 F12000.000
G1 E3.20000 F60000.00000
G1 F1500
G1 X-17.391 Y-7.813 E3.86777
G1 X-32.745 Y-7.813 E4.53553
G1 X-32.745 Y-23.167 E5.20330
G1 X-17.451 Y-23.167 E5.86846
G1 X-17.848 Y-22.710 F12000.000
G1 F750
G1 X-17.848 Y-8.270 E6.35072
G1 X-32.288 Y-8.270 E6.83299
G1 X-32.288 Y-22.710 E7.31526
G1 X-17.908 Y-22.710 E7.79552
G1 X-17.462 Y-22.814 F12000.000
G1 F9600
G1 X-17.906 Y-22.230 E4.94552
G1 E4.79552 F60000.00000
G92 E0
G1 X-17.391 Y-4.117 F12000.000
G1 E3.20000 F60000.00000
G1 F1500
G1 X-17.391 Y11.237 E3.86777
G1 X-32.745 Y11.237 E4.53553
G1 X-32.745 Y-4.117 E5.20330
G1 X-17.451 Y-4.117 E5.86846
G1 X-17.848 Y-3.660 F12000.000
G1 F750
G1 X-17.848 Y10.780 E6.35072
G1 X-32.288 Y10.780 E6.83299
G1 X-32.288 Y-3.660 E7.31526
G1 X-17.908 Y-3.660 E7.79552
G1 X-17.462 Y-3.764 F12000.000
G1 F9600
G1 X-17.906 Y-3.180 E4.94552
G1 E4.79552 F60000.00000
G92 E0
G1 X-17.391 Y14.933 F12000.000
